X: 6
T: Susan & Alan Carr
C: Muriel Johnstone 2000
T: Dance: The Double Diamond Strathspey
N: For Susan and Alan Carr.
B: Social Dances 2002
R: strathspey
Z: 2014 John Chambers <jc:trillian.mit.edu>
M: C
L: 1/8
K: F
C |\
"F"A2 A>G A<c "C/E"cd/e/ | "Em"f>e dc "Gm/Bb"d<g "C7"gf/g/ |\
"F"a>g f>c "Bb"d<f "F/A"FG/A/ | "Gm"B>A G>F "C7"E<G C>D |
"F"C<A A>G A<c "C/E"cd/e/ | "Dm"f>e dc "Gm/Bb"d<g "C7"gf/g/ |\
"F"a>g f>c "Bb"d<f "Dm"FG/A/ | "Gm"B>A G"C7"<E "F"F2- F ||
D |\
"F"C<c c>D "Am"C<c c>G | "Dm"F<f f>g "F"a>g f<c |\
"Bb"d>c "F/A"f<c "Gm"B>A "F"c<F | "Gm/Bb"d<G G>A "C7"B/A/G/F/ ED |
"F"C<c c>D "Am"C<c c>G | "Dm"F<f f>g "F"a>g f<c |\
"Gm/Bb"d<c b>a "Gm"g>f "G/B"e>d | "F/C"c<f "C7"f>e | "F"f2- f :|

